X: 87
P: Tantens polska av Verner Persson
C: Verner Persson
R: gammalpolska fr F\"ollinge
N: Handwritten MS
M: 3/4
L: 1/8
%%slurgraces 1
K: D
A \
|: "D"(3A(FA) d>c B2 | A2 (3F(AF) D2 | "A7"G2 (3E(GE) CE |1,3 "D"DF (3F(EF) AA :|2,4 "D"DF D3 z :|
|: "D"A2 (FA) dc | "G"(3B(AG) B4 | "A7"A2 GE CE |1,3 "D"DF (3F(EF) A2 :|2,4 "D"D2 {c}d3 z :|
%%newpage
